X:418
T:Policeman's Holiday, The
R:jig
Z:hn-jig-418
M:6/8
L:1/8
K:G
dBG DGB | gfa gdB | ecA EAc | egg gfe |
dBG DGc | B2d dcB | A^ce ~a3 |1 fe^c d2g :|2 fe^c def ||
|: ~g3 fdg | ecg dBA  | GBd gfe | dBA GBd | 
gea fdg | ~e3 dcB | A^ce ~a3 |1 fd^c def :|2 fd^c ded ||
|: Bc^c dbf | agd f=fe | dbf agd | f=fe bge | 
dbf agd | B2g gdB | A^ce ~a3 |1 fd^c ded :|2 fd^c d2g ||  

